X: 13020
T: Finbar Dwyer's
R: reel
M: 4/4
K: Adorian
z|(3EFE ED EDB,E|DG,B,D G2 GA|E2 ED EDB,D|EB,DB, A,2 B,D|
^CA,EA, GGGD|EDEG E2 GA|BBBG A3 F|(3GFE EB, A,3:|
G|A2 AE ABAG|(3EFE DE GEAG|(3EFE AB cGGG|d2 BG EGAB|
c3 c cBAc|BBBG EG d2|(3GFE DB, DG,B,D|EB,DB, A,3:|

